public/luts/blue.cube
#Created by: Three.js 186dev - Color Grading
TITLE "My Color Grading"
LUT_3D_SIZE 5
DOMAIN_MIN 0.000000 0.000000 0.000000
DOMAIN_MAX 0.903226 0.903226 0.903226
0.010542 0.010542 0.191664
0.012922 0.010542 0.191664
0.238871 0.013138 0.194260
0.585265 0.032190 0.213312
0.868801 0.047784 0.228907
0.010542 0.135871 0.191664
0.012922 0.135871 0.191664
0.238871 0.138467 0.194260
0.585265 0.157519 0.213312
0.868801 0.173113 0.228907
0.029254 0.531884 0.210376
0.031634 0.531884 0.210376
0.254987 0.531884 0.210376
0.585265 0.534820 0.213312
0.868801 0.550415 0.228907
0.050014 0.909351 0.231137
0.052395 0.909351 0.231137
0.275747 0.909351 0.231137
0.603090 0.909351 0.231137
0.871031 0.909351 0.231137
0.055000 1.000000 0.236122
0.057380 1.000000 0.236122
0.280733 1.000000 0.236122
0.608076 1.000000 0.236122
0.876017 1.000000 0.236122
0.024793 0.024793 0.450780
0.027173 0.024793 0.450780
0.250526 0.024793 0.450780
0.585265 0.032190 0.458177
0.868801 0.047784 0.473771
0.024793 0.150122 0.450780
0.027173 0.150122 0.450780
0.250526 0.150122 0.450780
0.585265 0.157519 0.458177
0.868801 0.173113 0.473771
0.029254 0.531884 0.455241
0.031634 0.531884 0.455241
0.254987 0.531884 0.455241
0.585265 0.534820 0.458177
0.868801 0.550415 0.473771
0.050014 0.909351 0.476002
0.052395 0.909351 0.476002
0.275747 0.909351 0.476002
0.603090 0.909351 0.476002
0.871031 0.909351 0.476002
0.055000 1.000000 0.480987
0.057380 1.000000 0.480987
0.280733 1.000000 0.480987
0.608076 1.000000 0.480987
0.876017 1.000000 0.480987
0.040360 0.040360 0.733822
0.042741 0.040360 0.733822
0.266093 0.040360 0.733822
0.593436 0.040360 0.733822
0.868801 0.047784 0.741246
0.040360 0.165690 0.733822
0.042741 0.165690 0.733822
0.266093 0.165690 0.733822
0.593436 0.165690 0.733822
0.868801 0.173113 0.741246
0.040360 0.542991 0.733822
0.042741 0.542991 0.733822
0.266093 0.542991 0.733822
0.593436 0.542991 0.733822
0.868801 0.550415 0.741246
0.050014 0.909351 0.743476
0.052395 0.909351 0.743476
0.275747 0.909351 0.743476
0.603090 0.909351 0.743476
0.871031 0.909351 0.743476
0.055000 1.000000 0.748462
0.057380 1.000000 0.748462
0.280733 1.000000 0.748462
0.608076 1.000000 0.748462
0.876017 1.000000 0.748462
0.050515 0.050515 0.918454
0.052895 0.050515 0.918454
0.276248 0.050515 0.918454
0.603591 0.050515 0.918454
0.871532 0.050515 0.918454
0.050515 0.175844 0.918454
0.052895 0.175844 0.918454
0.276248 0.175844 0.918454
0.603591 0.175844 0.918454
0.871532 0.175844 0.918454
0.050515 0.553146 0.918454
0.052895 0.553146 0.918454
0.276248 0.553146 0.918454
0.603591 0.553146 0.918454
0.871532 0.553146 0.918454
0.050515 0.909851 0.918454
0.052895 0.909851 0.918454
0.276248 0.909851 0.918454
0.603591 0.909851 0.918454
0.871532 0.909851 0.918454
0.055000 1.000000 0.922939
0.057380 1.000000 0.922939
0.280733 1.000000 0.922939
0.608076 1.000000 0.922939
0.876017 1.000000 0.922939
0.054581 0.054581 0.992378
0.056961 0.054581 0.992378
0.280314 0.054581 0.992378
0.607656 0.054581 0.992378
0.875597 0.054581 0.992378
0.054581 0.179910 0.992378
0.056961 0.179910 0.992378
0.280314 0.179910 0.992378
0.607656 0.179910 0.992378
0.875597 0.179910 0.992378
0.054581 0.557211 0.992378
0.056961 0.557211 0.992378
0.280314 0.557211 0.992378
0.607656 0.557211 0.992378
0.875597 0.557211 0.992378
0.054581 0.913917 0.992378
0.056961 0.913917 0.992378
0.280314 0.913917 0.992378
0.607656 0.913917 0.992378
0.875597 0.913917 0.992378
0.055000 1.000000 0.992797
0.057380 1.000000 0.992797
0.280733 1.000000 0.992797
0.608076 1.000000 0.992797
0.876017 1.000000 0.992797
