public/luts/blue.cube
#Created by: Three.js 186dev - Color Grading
TITLE "My Color Grading"
LUT_3D_SIZE 32
0.010542 0.010542 0.191664
0.010542 0.010542 0.191664
0.010542 0.010542 0.191664
0.010542 0.010542 0.191664
0.010542 0.010542 0.191664
0.010542 0.010542 0.191664
0.010542 0.010542 0.191664
0.012922 0.010542 0.191664
0.045592 0.010542 0.191664
0.072980 0.010542 0.191664
0.099768 0.010542 0.191664
0.128169 0.010542 0.191664
0.159864 0.010542 0.191664
0.196374 0.010801 0.191923
0.238871 0.013138 0.194260
0.284533 0.015649 0.196772
0.332593 0.018293 0.199415
0.382337 0.021029 0.202151
0.433097 0.023820 0.204943
0.484237 0.026633 0.207756
0.535153 0.029433 0.210556
0.585265 0.032190 0.213312
0.634016 0.034871 0.215993
0.680866 0.037448 0.218570
0.725294 0.039891 0.221014
0.766794 0.042174 0.223296
0.804871 0.044268 0.225390
0.839046 0.046148 0.227270
0.868801 0.047784 0.228907
0.893207 0.049126 0.230249
0.912830 0.050206 0.231328
0.928661 0.051076 0.232199
0.010542 0.010542 0.191664
0.010542 0.010542 0.191664
0.010542 0.010542 0.191664
0.010542 0.010542 0.191664
0.010542 0.010542 0.191664
0.010542 0.010542 0.191664
0.010542 0.010542 0.191664
0.012922 0.010542 0.191664
0.045592 0.010542 0.191664
0.072980 0.010542 0.191664
0.099768 0.010542 0.191664
0.128169 0.010542 0.191664
0.159864 0.010542 0.191664
0.196374 0.010801 0.191923
0.238871 0.013138 0.194260
0.284533 0.015649 0.196772
0.332593 0.018293 0.199415
0.382337 0.021029 0.202151
0.433097 0.023820 0.204943
0.484237 0.026633 0.207756
0.535153 0.029433 0.210556
0.585265 0.032190 0.213312
0.634016 0.034871 0.215993
0.680866 0.037448 0.218570
0.725294 0.039891 0.221014
0.766794 0.042174 0.223296
0.804871 0.044268 0.225390
0.839046 0.046148 0.227270
0.868801 0.047784 0.228907
0.893207 0.049126 0.230249
0.912830 0.050206 0.231328
0.928661 0.051076 0.232199
0.010542 0.010542 0.191664
0.010542 0.010542 0.191664
0.010542 0.010542 0.191664
0.010542 0.010542 0.191664
0.010542 0.010542 0.191664
0.010542 0.010542 0.191664
0.010542 0.010542 0.191664
0.012922 0.010542 0.191664
0.045592 0.010542 0.191664
0.072980 0.010542 0.191664
0.099768 0.010542 0.191664
0.128169 0.010542 0.191664
0.159864 0.010542 0.191664
0.196374 0.010801 0.191923
0.238871 0.013138 0.194260
0.284533 0.015649 0.196772
0.332593 0.018293 0.199415
0.382337 0.021029 0.202151
0.433097 0.023820 0.204943
0.484237 0.026633 0.207756
0.535153 0.029433 0.210556
0.585265 0.032190 0.213312
0.634016 0.034871 0.215993
0.680866 0.037448 0.218570
0.725294 0.039891 0.221014
0.766794 0.042174 0.223296
0.804871 0.044268 0.225390
0.839046 0.046148 0.227270
0.868801 0.047784 0.228907
0.893207 0.049126 0.230249
0.912830 0.050206 0.231328
0.928661 0.051076 0.232199
0.010542 0.026658 0.191664
0.010542 0.026658 0.191664
0.010542 0.026658 0.191664
0.010542 0.026658 0.191664
0.010542 0.026658 0.191664
0.010542 0.026658 0.191664
0.010542 0.026658 0.191664
0.012922 0.026658 0.191664
0.045592 0.026658 0.191664
0.072980 0.026658 0.191664
0.099768 0.026658 0.191664
0.128169 0.026658 0.191664
0.159864 0.026658 0.191664
0.196374 0.026918 0.191923
0.238871 0.029255 0.194260
0.284533 0.031766 0.196772
0.332593 0.034410 0.199415
0.382337 0.037145 0.202151
0.433097 0.039937 0.204943
0.484237 0.042750 0.207756
0.535153 0.045550 0.210556
0.585265 0.048307 0.213312
0.634016 0.050988 0.215993
0.680866 0.053565 0.218570
0.725294 0.056008 0.221014
0.766794 0.058291 0.223296
0.804871 0.060385 0.225390
0.839046 0.062264 0.227270
0.868801 0.063901 0.228907
0.893207 0.065243 0.230249
0.912830 0.066323 0.231328
0.928661 0.067193 0.232199
0.010542 0.051189 0.191664
0.010542 0.051189 0.191664
0.010542 0.051189 0.191664
0.010542 0.051189 0.191664
0.010542 0.051189 0.191664
0.010542 0.051189 0.191664
0.010542 0.051189 0.191664
0.012922 0.051189 0.191664
0.045592 0.051189 0.191664
0.072980 0.051189 0.191664
0.099768 0.051189 0.191664
0.128169 0.051189 0.191664
0.159864 0.051189 0.191664
0.196374 0.051448 0.191923
0.238871 0.053785 0.194260
0.284533 0.056296 0.196772
0.332593 0.058940 0.199415
0.382337 0.061676 0.202151
0.433097 0.064467 0.204943
0.484237 0.067280 0.207756
0.535153 0.070080 0.210556
0.585265 0.072837 0.213312
0.634016 0.075518 0.215993
0.680866 0.078095 0.218570
0.725294 0.080538 0.221014
0.766794 0.082821 0.223296
0.804871 0.084915 0.225390
0.839046 0.086795 0.227270
0.868801 0.088431 0.228907
0.893207 0.089773 0.230249
0.912830 0.090853 0.231328
0.928661 0.091723 0.232199
0.010542 0.076784 0.191664
0.010542 0.076784 0.191664
0.010542 0.076784 0.191664
0.010542 0.076784 0.191664
0.010542 0.076784 0.191664
0.010542 0.076784 0.191664
0.010542 0.076784 0.191664
0.012922 0.076784 0.191664
0.045592 0.076784 0.191664
0.072980 0.076784 0.191664
0.099768 0.076784 0.191664
0.128169 0.076784 0.191664
0.159864 0.076784 0.191664
0.196374 0.077043 0.191923
0.238871 0.079380 0.194260
0.284533 0.081892 0.196772
0.332593 0.084535 0.199415
0.382337 0.087271 0.202151
0.433097 0.090063 0.204943
0.484237 0.092875 0.207756
0.535153 0.095676 0.210556
0.585265 0.098432 0.213312
0.634016 0.101113 0.215993
0.680866 0.103690 0.218570
0.725294 0.106134 0.221014
0.766794 0.108416 0.223296
0.804871 0.110510 0.225390
0.839046 0.112390 0.227270
0.868801 0.114026 0.228907
0.893207 0.115369 0.230249
0.912830 0.116448 0.231328
0.928661 0.117319 0.232199
0.010542 0.104392 0.191664
0.010542 0.104392 0.191664
0.010542 0.104392 0.191664
0.010542 0.104392 0.191664
0.010542 0.104392 0.191664
0.010542 0.104392 0.191664
0.010542 0.104392 0.191664
0.012922 0.104392 0.191664
0.045592 0.104392 0.191664
0.072980 0.104392 0.191664
0.099768 0.104392 0.191664
0.128169 0.104392 0.191664
0.159864 0.104392 0.191664
0.196374 0.104651 0.191923
0.238871 0.106988 0.194260
0.284533 0.109499 0.196772
0.332593 0.112143 0.199415
0.382337 0.114879 0.202151
0.433097 0.117670 0.204943
0.484237 0.120483 0.207756
0.535153 0.123284 0.210556
0.585265 0.126040 0.213312
0.634016 0.128721 0.215993
0.680866 0.131298 0.218570
0.725294 0.133741 0.221014
0.766794 0.136024 0.223296
0.804871 0.138118 0.225390
0.839046 0.139998 0.227270
0.868801 0.141634 0.228907
0.893207 0.142977 0.230249
0.912830 0.144056 0.231328
0.928661 0.144927 0.232199
0.010542 0.135871 0.191664
0.010542 0.135871 0.191664
0.010542 0.135871 0.191664
0.010542 0.135871 0.191664
0.010542 0.135871 0.191664
0.010542 0.135871 0.191664
0.010542 0.135871 0.191664
0.012922 0.135871 0.191664
0.045592 0.135871 0.191664
0.072980 0.135871 0.191664
0.099768 0.135871 0.191664
0.128169 0.135871 0.191664
0.159864 0.135871 0.191664
0.196374 0.136130 0.191923
0.238871 0.138467 0.194260
0.284533 0.140979 0.196772
0.332593 0.143622 0.199415
0.382337 0.146358 0.202151
0.433097 0.149150 0.204943
0.484237 0.151962 0.207756
0.535153 0.154763 0.210556
0.585265 0.157519 0.213312
0.634016 0.160200 0.215993
0.680866 0.162777 0.218570
0.725294 0.165221 0.221014
0.766794 0.167503 0.223296
0.804871 0.169597 0.225390
0.839046 0.171477 0.227270
0.868801 0.173113 0.228907
0.893207 0.174456 0.230249
0.912830 0.175535 0.231328
0.928661 0.176406 0.232199
0.010542 0.173445 0.191664
0.010542 0.173445 0.191664
0.010542 0.173445 0.191664
0.010542 0.173445 0.191664
0.010542 0.173445 0.191664
0.010542 0.173445 0.191664
0.010542 0.173445 0.191664
0.012922 0.173445 0.191664
0.045592 0.173445 0.191664
0.072980 0.173445 0.191664
0.099768 0.173445 0.191664
0.128169 0.173445 0.191664
0.159864 0.173445 0.191664
0.196374 0.173704 0.191923
0.238871 0.176041 0.194260
0.284533 0.178553 0.196772
0.332593 0.181196 0.199415
0.382337 0.183932 0.202151
0.433097 0.186724 0.204943
0.484237 0.189536 0.207756
0.535153 0.192337 0.210556
0.585265 0.195093 0.213312
0.634016 0.197774 0.215993
0.680866 0.200351 0.218570
0.725294 0.202794 0.221014
0.766794 0.205077 0.223296
0.804871 0.207171 0.225390
0.839046 0.209051 0.227270
0.868801 0.210687 0.228907
0.893207 0.212030 0.230249
0.912830 0.213109 0.231328
0.928661 0.213980 0.232199
0.012104 0.220065 0.193226
0.012104 0.220065 0.193226
0.012104 0.220065 0.193226
0.012104 0.220065 0.193226
0.012104 0.220065 0.193226
0.012104 0.220065 0.193226
0.012104 0.220065 0.193226
0.014484 0.220065 0.193226
0.047154 0.220065 0.193226
0.074543 0.220065 0.193226
0.101330 0.220065 0.193226
0.129731 0.220065 0.193226
0.161426 0.220065 0.193226
0.197677 0.220065 0.193226
0.238871 0.221100 0.194260
0.284533 0.223611 0.196772
0.332593 0.226254 0.199415
0.382337 0.228990 0.202151
0.433097 0.231782 0.204943
0.484237 0.234595 0.207756
0.535153 0.237395 0.210556
0.585265 0.240151 0.213312
0.634016 0.242833 0.215993
0.680866 0.245409 0.218570
0.725294 0.247853 0.221014
0.766794 0.250135 0.223296
0.804871 0.252230 0.225390
0.839046 0.254109 0.227270
0.868801 0.255746 0.228907
0.893207 0.257088 0.230249
0.912830 0.258167 0.231328
0.928661 0.259038 0.232199
0.015089 0.274337 0.196211
0.015089 0.274337 0.196211
0.015089 0.274337 0.196211
0.015089 0.274337 0.196211
0.015089 0.274337 0.196211
0.015089 0.274337 0.196211
0.015089 0.274337 0.196211
0.017469 0.274337 0.196211
0.050139 0.274337 0.196211
0.077527 0.274337 0.196211
0.104315 0.274337 0.196211
0.132716 0.274337 0.196211
0.164411 0.274337 0.196211
0.200662 0.274337 0.196211
0.240821 0.274337 0.196211
0.284533 0.274898 0.196772
0.332593 0.277541 0.199415
0.382337 0.280277 0.202151
0.433097 0.283069 0.204943
0.484237 0.285882 0.207756
0.535153 0.288682 0.210556
0.585265 0.291438 0.213312
0.634016 0.294119 0.215993
0.680866 0.296696 0.218570
0.725294 0.299140 0.221014
0.766794 0.301422 0.223296
0.804871 0.303517 0.225390
0.839046 0.305396 0.227270
0.868801 0.307033 0.228907
0.893207 0.308375 0.230249
0.912830 0.309454 0.231328
0.928661 0.310325 0.232199
0.018369 0.333985 0.199492
0.018369 0.333985 0.199492
0.018369 0.333985 0.199492
0.018369 0.333985 0.199492
0.018369 0.333985 0.199492
0.018369 0.333985 0.199492
0.018369 0.333985 0.199492
0.020750 0.333985 0.199492
0.053419 0.333985 0.199492
0.080808 0.333985 0.199492
0.107596 0.333985 0.199492
0.135996 0.333985 0.199492
0.167692 0.333985 0.199492
0.203943 0.333985 0.199492
0.244102 0.333985 0.199492
0.287253 0.333985 0.199492
0.332669 0.333985 0.199492
0.382337 0.336644 0.202151
0.433097 0.339436 0.204943
0.484237 0.342248 0.207756
0.535153 0.345049 0.210556
0.585265 0.347805 0.213312
0.634016 0.350486 0.215993
0.680866 0.353063 0.218570
0.725294 0.355507 0.221014
0.766794 0.357789 0.223296
0.804871 0.359883 0.225390
0.839046 0.361763 0.227270
0.868801 0.363400 0.228907
0.893207 0.364742 0.230249
0.912830 0.365821 0.231328
0.928661 0.366692 0.232199
0.021874 0.397715 0.202997
0.021874 0.397715 0.202997
0.021874 0.397715 0.202997
0.021874 0.397715 0.202997
0.021874 0.397715 0.202997
0.021874 0.397715 0.202997
0.021874 0.397715 0.202997
0.024255 0.397715 0.202997
0.056925 0.397715 0.202997
0.084313 0.397715 0.202997
0.111101 0.397715 0.202997
0.139502 0.397715 0.202997
0.171197 0.397715 0.202997
0.207448 0.397715 0.202997
0.247607 0.397715 0.202997
0.290758 0.397715 0.202997
0.336174 0.397715 0.202997
0.383183 0.397715 0.202997
0.433097 0.399661 0.204943
0.484237 0.402474 0.207756
0.535153 0.405274 0.210556
0.585265 0.408030 0.213312
0.634016 0.410712 0.215993
0.680866 0.413289 0.218570
0.725294 0.415732 0.221014
0.766794 0.418015 0.223296
0.804871 0.420109 0.225390
0.839046 0.421988 0.227270
0.868801 0.423625 0.228907
0.893207 0.424967 0.230249
0.912830 0.426047 0.231328
0.928661 0.426917 0.232199
0.025529 0.464160 0.206651
0.025529 0.464160 0.206651
0.025529 0.464160 0.206651
0.025529 0.464160 0.206651
0.025529 0.464160 0.206651
0.025529 0.464160 0.206651
0.025529 0.464160 0.206651
0.027909 0.464160 0.206651
0.060579 0.464160 0.206651
0.087968 0.464160 0.206651
0.114755 0.464160 0.206651
0.143156 0.464160 0.206651
0.174852 0.464160 0.206651
0.211102 0.464160 0.206651
0.251262 0.464160 0.206651
0.294412 0.464160 0.206651
0.339829 0.464160 0.206651
0.386838 0.464160 0.206651
0.434805 0.464160 0.206651
0.484237 0.465264 0.207756
0.535153 0.468065 0.210556
0.585265 0.470821 0.213312
0.634016 0.473502 0.215993
0.680866 0.476079 0.218570
0.725294 0.478523 0.221014
0.766794 0.480805 0.223296
0.804871 0.482899 0.225390
0.839046 0.484779 0.227270
0.868801 0.486415 0.228907
0.893207 0.487758 0.230249
0.912830 0.488837 0.231328
0.928661 0.489708 0.232199
0.029254 0.531884 0.210376
0.029254 0.531884 0.210376
0.029254 0.531884 0.210376
0.029254 0.531884 0.210376
0.029254 0.531884 0.210376
0.029254 0.531884 0.210376
0.029254 0.531884 0.210376
0.031634 0.531884 0.210376
0.064304 0.531884 0.210376
0.091693 0.531884 0.210376
0.118480 0.531884 0.210376
0.146881 0.531884 0.210376
0.178576 0.531884 0.210376
0.214827 0.531884 0.210376
0.254987 0.531884 0.210376
0.298137 0.531884 0.210376
0.343554 0.531884 0.210376
0.390562 0.531884 0.210376
0.438530 0.531884 0.210376
0.486858 0.531884 0.210376
0.535153 0.532064 0.210556
0.585265 0.534820 0.213312
0.634016 0.537502 0.215993
0.680866 0.540078 0.218570
0.725294 0.542522 0.221014
0.766794 0.544804 0.223296
0.804871 0.546899 0.225390
0.839046 0.548778 0.227270
0.868801 0.550415 0.228907
0.893207 0.551757 0.230249
0.912830 0.552836 0.231328
0.928661 0.553707 0.232199
0.032967 0.599393 0.214089
0.032967 0.599393 0.214089
0.032967 0.599393 0.214089
0.032967 0.599393 0.214089
0.032967 0.599393 0.214089
0.032967 0.599393 0.214089
0.032967 0.599393 0.214089
0.035347 0.599393 0.214089
0.068017 0.599393 0.214089
0.095406 0.599393 0.214089
0.122193 0.599393 0.214089
0.150594 0.599393 0.214089
0.182289 0.599393 0.214089
0.218540 0.599393 0.214089
0.258700 0.599393 0.214089
0.301850 0.599393 0.214089
0.347267 0.599393 0.214089
0.394275 0.599393 0.214089
0.442243 0.599393 0.214089
0.490571 0.599393 0.214089
0.538686 0.599393 0.214089
0.586042 0.599393 0.214089
0.634016 0.601298 0.215993
0.680866 0.603874 0.218570
0.725294 0.606318 0.221014
0.766794 0.608600 0.223296
0.804871 0.610695 0.225390
0.839046 0.612574 0.227270
0.868801 0.614211 0.228907
0.893207 0.615553 0.230249
0.912830 0.616632 0.231328
0.928661 0.617503 0.232199
0.036583 0.665140 0.217705
0.036583 0.665140 0.217705
0.036583 0.665140 0.217705
0.036583 0.665140 0.217705
0.036583 0.665140 0.217705
0.036583 0.665140 0.217705
0.036583 0.665140 0.217705
0.038963 0.665140 0.217705
0.071633 0.665140 0.217705
0.099022 0.665140 0.217705
0.125809 0.665140 0.217705
0.154210 0.665140 0.217705
0.185906 0.665140 0.217705
0.222156 0.665140 0.217705
0.262316 0.665140 0.217705
0.305466 0.665140 0.217705
0.350883 0.665140 0.217705
0.397891 0.665140 0.217705
0.445859 0.665140 0.217705
0.494187 0.665140 0.217705
0.542302 0.665140 0.217705
0.589658 0.665140 0.217705
0.635728 0.665140 0.217705
0.680866 0.666005 0.218570
0.725294 0.668449 0.221014
0.766794 0.670731 0.223296
0.804871 0.672826 0.225390
0.839046 0.674705 0.227270
0.868801 0.676342 0.228907
0.893207 0.677684 0.230249
0.912830 0.678763 0.231328
0.928661 0.679634 0.232199
0.040014 0.727530 0.221137
0.040014 0.727530 0.221137
0.040014 0.727530 0.221137
0.040014 0.727530 0.221137
0.040014 0.727530 0.221137
0.040014 0.727530 0.221137
0.040014 0.727530 0.221137
0.042394 0.727530 0.221137
0.075064 0.727530 0.221137
0.102453 0.727530 0.221137
0.129241 0.727530 0.221137
0.157641 0.727530 0.221137
0.189337 0.727530 0.221137
0.225588 0.727530 0.221137
0.265747 0.727530 0.221137
0.308898 0.727530 0.221137
0.354314 0.727530 0.221137
0.401323 0.727530 0.221137
0.449291 0.727530 0.221137
0.497618 0.727530 0.221137
0.545734 0.727530 0.221137
0.593090 0.727530 0.221137
0.639159 0.727530 0.221137
0.683433 0.727530 0.221137
0.725417 0.727530 0.221137
0.766794 0.729689 0.223296
0.804871 0.731783 0.225390
0.839046 0.733663 0.227270
0.868801 0.735300 0.228907
0.893207 0.736642 0.230249
0.912830 0.737721 0.231328
0.928661 0.738592 0.232199
0.043171 0.784922 0.224293
0.043171 0.784922 0.224293
0.043171 0.784922 0.224293
0.043171 0.784922 0.224293
0.043171 0.784922 0.224293
0.043171 0.784922 0.224293
0.043171 0.784922 0.224293
0.045551 0.784922 0.224293
0.078221 0.784922 0.224293
0.105610 0.784922 0.224293
0.132397 0.784922 0.224293
0.160798 0.784922 0.224293
0.192494 0.784922 0.224293
0.228744 0.784922 0.224293
0.268904 0.784922 0.224293
0.312054 0.784922 0.224293
0.357471 0.784922 0.224293
0.404479 0.784922 0.224293
0.452447 0.784922 0.224293
0.500775 0.784922 0.224293
0.548890 0.784922 0.224293
0.596246 0.784922 0.224293
0.642316 0.784922 0.224293
0.686589 0.784922 0.224293
0.728574 0.784922 0.224293
0.767791 0.784922 0.224293
0.804871 0.786019 0.225390
0.839046 0.787899 0.227270
0.868801 0.789535 0.228907
0.893207 0.790877 0.230249
0.912830 0.791957 0.231328
0.928661 0.792827 0.232199
0.045960 0.835636 0.227082
0.045960 0.835636 0.227082
0.045960 0.835636 0.227082
0.045960 0.835636 0.227082
0.045960 0.835636 0.227082
0.045960 0.835636 0.227082
0.045960 0.835636 0.227082
0.048340 0.835636 0.227082
0.081010 0.835636 0.227082
0.108399 0.835636 0.227082
0.135187 0.835636 0.227082
0.163587 0.835636 0.227082
0.195283 0.835636 0.227082
0.231534 0.835636 0.227082
0.271693 0.835636 0.227082
0.314843 0.835636 0.227082
0.360260 0.835636 0.227082
0.407269 0.835636 0.227082
0.455237 0.835636 0.227082
0.503564 0.835636 0.227082
0.551680 0.835636 0.227082
0.599036 0.835636 0.227082
0.645105 0.835636 0.227082
0.689379 0.835636 0.227082
0.731363 0.835636 0.227082
0.770580 0.835636 0.227082
0.806563 0.835636 0.227082
0.839046 0.835824 0.227270
0.868801 0.837460 0.228907
0.893207 0.838802 0.230249
0.912830 0.839882 0.231328
0.928661 0.840752 0.232199
0.048276 0.877749 0.229399
0.048276 0.877749 0.229399
0.048276 0.877749 0.229399
0.048276 0.877749 0.229399
0.048276 0.877749 0.229399
0.048276 0.877749 0.229399
0.048276 0.877749 0.229399
0.050657 0.877749 0.229399
0.083326 0.877749 0.229399
0.110715 0.877749 0.229399
0.137503 0.877749 0.229399
0.165903 0.877749 0.229399
0.197599 0.877749 0.229399
0.233850 0.877749 0.229399
0.274009 0.877749 0.229399
0.317160 0.877749 0.229399
0.362576 0.877749 0.229399
0.409585 0.877749 0.229399
0.457553 0.877749 0.229399
0.505880 0.877749 0.229399
0.553996 0.877749 0.229399
0.601352 0.877749 0.229399
0.647421 0.877749 0.229399
0.691695 0.877749 0.229399
0.733679 0.877749 0.229399
0.772896 0.877749 0.229399
0.808880 0.877749 0.229399
0.841175 0.877749 0.229399
0.869293 0.877749 0.229399
0.893207 0.878599 0.230249
0.912830 0.879678 0.231328
0.928661 0.880549 0.232199
0.050014 0.909351 0.231137
0.050014 0.909351 0.231137
0.050014 0.909351 0.231137
0.050014 0.909351 0.231137
0.050014 0.909351 0.231137
0.050014 0.909351 0.231137
0.050014 0.909351 0.231137
0.052395 0.909351 0.231137
0.085064 0.909351 0.231137
0.112453 0.909351 0.231137
0.139241 0.909351 0.231137
0.167641 0.909351 0.231137
0.199337 0.909351 0.231137
0.235588 0.909351 0.231137
0.275747 0.909351 0.231137
0.318898 0.909351 0.231137
0.364314 0.909351 0.231137
0.411323 0.909351 0.231137
0.459291 0.909351 0.231137
0.507618 0.909351 0.231137
0.555734 0.909351 0.231137
0.603090 0.909351 0.231137
0.649159 0.909351 0.231137
0.693433 0.909351 0.231137
0.735417 0.909351 0.231137
0.774634 0.909351 0.231137
0.810618 0.909351 0.231137
0.842913 0.909351 0.231137
0.871031 0.909351 0.231137
0.894095 0.909351 0.231137
0.912830 0.909542 0.231328
0.928661 0.910413 0.232199
0.051294 0.932626 0.232417
0.051294 0.932626 0.232417
0.051294 0.932626 0.232417
0.051294 0.932626 0.232417
0.051294 0.932626 0.232417
0.051294 0.932626 0.232417
0.051294 0.932626 0.232417
0.053675 0.932626 0.232417
0.086345 0.932626 0.232417
0.113733 0.932626 0.232417
0.140521 0.932626 0.232417
0.168922 0.932626 0.232417
0.200617 0.932626 0.232417
0.236868 0.932626 0.232417
0.277027 0.932626 0.232417
0.320178 0.932626 0.232417
0.365594 0.932626 0.232417
0.412603 0.932626 0.232417
0.460571 0.932626 0.232417
0.508899 0.932626 0.232417
0.557014 0.932626 0.232417
0.604370 0.932626 0.232417
0.650439 0.932626 0.232417
0.694713 0.932626 0.232417
0.736698 0.932626 0.232417
0.775915 0.932626 0.232417
0.811898 0.932626 0.232417
0.844193 0.932626 0.232417
0.872311 0.932626 0.232417
0.895375 0.932626 0.232417
0.913918 0.932626 0.232417
0.928879 0.932626 0.232417
0.052276 0.950466 0.233398
0.052276 0.950466 0.233398
0.052276 0.950466 0.233398
0.052276 0.950466 0.233398
0.052276 0.950466 0.233398
0.052276 0.950466 0.233398
0.052276 0.950466 0.233398
0.054656 0.950466 0.233398
0.087326 0.950466 0.233398
0.114715 0.950466 0.233398
0.141502 0.950466 0.233398
0.169903 0.950466 0.233398
0.201599 0.950466 0.233398
0.237849 0.950466 0.233398
0.278009 0.950466 0.233398
0.321159 0.950466 0.233398
0.366576 0.950466 0.233398
0.413584 0.950466 0.233398
0.461552 0.950466 0.233398
0.509880 0.950466 0.233398
0.557995 0.950466 0.233398
0.605351 0.950466 0.233398
0.651421 0.950466 0.233398
0.695694 0.950466 0.233398
0.737679 0.950466 0.233398
0.776896 0.950466 0.233398
0.812879 0.950466 0.233398
0.845174 0.950466 0.233398
0.873292 0.950466 0.233398
0.896357 0.950466 0.233398
0.914900 0.950466 0.233398
0.929860 0.950466 0.233398
0.053121 0.965839 0.234244
0.053121 0.965839 0.234244
0.053121 0.965839 0.234244
0.053121 0.965839 0.234244
0.053121 0.965839 0.234244
0.053121 0.965839 0.234244
0.053121 0.965839 0.234244
0.055502 0.965839 0.234244
0.088171 0.965839 0.234244
0.115560 0.965839 0.234244
0.142348 0.965839 0.234244
0.170748 0.965839 0.234244
0.202444 0.965839 0.234244
0.238695 0.965839 0.234244
0.278854 0.965839 0.234244
0.322005 0.965839 0.234244
0.367421 0.965839 0.234244
0.414430 0.965839 0.234244
0.462398 0.965839 0.234244
0.510725 0.965839 0.234244
0.558841 0.965839 0.234244
0.606197 0.965839 0.234244
0.652266 0.965839 0.234244
0.696540 0.965839 0.234244
0.738524 0.965839 0.234244
0.777741 0.965839 0.234244
0.813725 0.965839 0.234244
0.846020 0.965839 0.234244
0.874138 0.965839 0.234244
0.897202 0.965839 0.234244
0.915745 0.965839 0.234244
0.930706 0.965839 0.234244
0.053998 0.981785 0.235121
0.053998 0.981785 0.235121
0.053998 0.981785 0.235121
0.053998 0.981785 0.235121
0.053998 0.981785 0.235121
0.053998 0.981785 0.235121
0.053998 0.981785 0.235121
0.056379 0.981785 0.235121
0.089048 0.981785 0.235121
0.116437 0.981785 0.235121
0.143225 0.981785 0.235121
0.171625 0.981785 0.235121
0.203321 0.981785 0.235121
0.239572 0.981785 0.235121
0.279731 0.981785 0.235121
0.322882 0.981785 0.235121
0.368298 0.981785 0.235121
0.415307 0.981785 0.235121
0.463275 0.981785 0.235121
0.511602 0.981785 0.235121
0.559718 0.981785 0.235121
0.607074 0.981785 0.235121
0.653143 0.981785 0.235121
0.697417 0.981785 0.235121
0.739401 0.981785 0.235121
0.778618 0.981785 0.235121
0.814602 0.981785 0.235121
0.846897 0.981785 0.235121
0.875015 0.981785 0.235121
0.898079 0.981785 0.235121
0.916622 0.981785 0.235121
0.931583 0.981785 0.235121
0.055000 1.000000 0.236122
0.055000 1.000000 0.236122
0.055000 1.000000 0.236122
0.055000 1.000000 0.236122
0.055000 1.000000 0.236122
0.055000 1.000000 0.236122
0.055000 1.000000 0.236122
0.057380 1.000000 0.236122
0.090050 1.000000 0.236122
0.117439 1.000000 0.236122
0.144227 1.000000 0.236122
0.172627 1.000000 0.236122
0.204323 1.000000 0.236122
0.240574 1.000000 0.236122
0.280733 1.000000 0.236122
0.323883 1.000000 0.236122
0.369300 1.000000 0.236122
0.416309 1.000000 0.236122
0.464277 1.000000 0.236122
0.512604 1.000000 0.236122
0.560720 1.000000 0.236122
0.608076 1.000000 0.236122
0.654145 1.000000 0.236122
0.698419 1.000000 0.236122
0.740403 1.000000 0.236122
0.779620 1.000000 0.236122
0.815603 1.000000 0.236122
0.847898 1.000000 0.236122
0.876017 1.000000 0.236122
0.899081 1.000000 0.236122
0.917624 1.000000 0.236122
0.932585 1.000000 0.236122
0.055000 1.000000 0.236122
0.055000 1.000000 0.236122
0.055000 1.000000 0.236122
0.055000 1.000000 0.236122
0.055000 1.000000 0.236122
0.055000 1.000000 0.236122
0.055000 1.000000 0.236122
0.057380 1.000000 0.236122
0.090050 1.000000 0.236122
0.117439 1.000000 0.236122
0.144227 1.000000 0.236122
0.172627 1.000000 0.236122
0.204323 1.000000 0.236122
0.240574 1.000000 0.236122
0.280733 1.000000 0.236122
0.323883 1.000000 0.236122
0.369300 1.000000 0.236122
0.416309 1.000000 0.236122
0.464277 1.000000 0.236122
0.512604 1.000000 0.236122
0.560720 1.000000 0.236122
