public/luts/blue.cube
#Created by: Three.js 186dev - Color Grading
TITLE "My Color Grading"
LUT_3D_SIZE 8
DOMAIN_MIN 0.000000 0.000000 0.000000
DOMAIN_MAX 0.903226 0.903226 0.903226
0.010542 0.010542 0.191664
0.010542 0.010542 0.191664
0.045592 0.010542 0.191664
0.159864 0.010542 0.191664
0.332593 0.018293 0.199415
0.535153 0.029433 0.210556
0.725294 0.039891 0.221014
0.868801 0.047784 0.228907
0.010542 0.051189 0.191664
0.010542 0.051189 0.191664
0.045592 0.051189 0.191664
0.159864 0.051189 0.191664
0.332593 0.058940 0.199415
0.535153 0.070080 0.210556
0.725294 0.080538 0.221014
0.868801 0.088431 0.228907
0.010542 0.173445 0.191664
0.010542 0.173445 0.191664
0.045592 0.173445 0.191664
0.159864 0.173445 0.191664
0.332593 0.181196 0.199415
0.535153 0.192337 0.210556
0.725294 0.202794 0.221014
0.868801 0.210687 0.228907
0.021874 0.397715 0.202997
0.021874 0.397715 0.202997
0.056925 0.397715 0.202997
0.171197 0.397715 0.202997
0.336174 0.397715 0.202997
0.535153 0.405274 0.210556
0.725294 0.415732 0.221014
0.868801 0.423625 0.228907
0.036583 0.665140 0.217705
0.036583 0.665140 0.217705
0.071633 0.665140 0.217705
0.185906 0.665140 0.217705
0.350883 0.665140 0.217705
0.542302 0.665140 0.217705
0.725294 0.668449 0.221014
0.868801 0.676342 0.228907
0.048276 0.877749 0.229399
0.048276 0.877749 0.229399
0.083326 0.877749 0.229399
0.197599 0.877749 0.229399
0.362576 0.877749 0.229399
0.553996 0.877749 0.229399
0.733679 0.877749 0.229399
0.869293 0.877749 0.229399
0.053121 0.965839 0.234244
0.053121 0.965839 0.234244
0.088171 0.965839 0.234244
0.202444 0.965839 0.234244
0.367421 0.965839 0.234244
0.558841 0.965839 0.234244
0.738524 0.965839 0.234244
0.874138 0.965839 0.234244
0.055000 1.000000 0.236122
0.055000 1.000000 0.236122
0.090050 1.000000 0.236122
0.204323 1.000000 0.236122
0.369300 1.000000 0.236122
0.560720 1.000000 0.236122
0.740403 1.000000 0.236122
0.876017 1.000000 0.236122
0.018149 0.018149 0.329991
0.018149 0.018149 0.329991
0.053200 0.018149 0.329991
0.167472 0.018149 0.329991
0.332593 0.018293 0.330134
0.535153 0.029433 0.341275
0.725294 0.039891 0.351732
0.868801 0.047784 0.359625
0.018149 0.058797 0.329991
0.018149 0.058797 0.329991
0.053200 0.058797 0.329991
0.167472 0.058797 0.329991
0.332593 0.058940 0.330134
0.535153 0.070080 0.341275
0.725294 0.080538 0.351732
0.868801 0.088431 0.359625
0.018149 0.181053 0.329991
0.018149 0.181053 0.329991
0.053200 0.181053 0.329991
0.167472 0.181053 0.329991
0.332593 0.181196 0.330134
0.535153 0.192337 0.341275
0.725294 0.202794 0.351732
0.868801 0.210687 0.359625
0.021874 0.397715 0.333715
0.021874 0.397715 0.333715
0.056925 0.397715 0.333715
0.171197 0.397715 0.333715
0.336174 0.397715 0.333715
0.535153 0.405274 0.341275
0.725294 0.415732 0.351732
0.868801 0.423625 0.359625
0.036583 0.665140 0.348424
0.036583 0.665140 0.348424
0.071633 0.665140 0.348424
0.185906 0.665140 0.348424
0.350883 0.665140 0.348424
0.542302 0.665140 0.348424
0.725294 0.668449 0.351732
0.868801 0.676342 0.359625
0.048276 0.877749 0.360117
0.048276 0.877749 0.360117
0.083326 0.877749 0.360117
0.197599 0.877749 0.360117
0.362576 0.877749 0.360117
0.553996 0.877749 0.360117
0.733679 0.877749 0.360117
0.869293 0.877749 0.360117
0.053121 0.965839 0.364962
0.053121 0.965839 0.364962
0.088171 0.965839 0.364962
0.202444 0.965839 0.364962
0.367421 0.965839 0.364962
0.558841 0.965839 0.364962
0.738524 0.965839 0.364962
0.874138 0.965839 0.364962
0.055000 1.000000 0.366841
0.055000 1.000000 0.366841
0.090050 1.000000 0.366841
0.204323 1.000000 0.366841
0.369300 1.000000 0.366841
0.560720 1.000000 0.366841
0.740403 1.000000 0.366841
0.876017 1.000000 0.366841
0.027088 0.027088 0.492509
0.027088 0.027088 0.492509
0.062138 0.027088 0.492509
0.176411 0.027088 0.492509
0.341388 0.027088 0.492509
0.535153 0.029433 0.494854
0.725294 0.039891 0.505312
0.868801 0.047784 0.513205
0.027088 0.067735 0.492509
0.027088 0.067735 0.492509
0.062138 0.067735 0.492509
0.176411 0.067735 0.492509
0.341388 0.067735 0.492509
0.535153 0.070080 0.494854
0.725294 0.080538 0.505312
0.868801 0.088431 0.513205
0.027088 0.189991 0.492509
0.027088 0.189991 0.492509
0.062138 0.189991 0.492509
0.176411 0.189991 0.492509
0.341388 0.189991 0.492509
0.535153 0.192337 0.494854
0.725294 0.202794 0.505312
0.868801 0.210687 0.513205
0.027088 0.402929 0.492509
0.027088 0.402929 0.492509
0.062138 0.402929 0.492509
0.176411 0.402929 0.492509
0.341388 0.402929 0.492509
0.535153 0.405274 0.494854
0.725294 0.415732 0.505312
0.868801 0.423625 0.513205
0.036583 0.665140 0.502004
0.036583 0.665140 0.502004
0.071633 0.665140 0.502004
0.185906 0.665140 0.502004
0.350883 0.665140 0.502004
0.542302 0.665140 0.502004
0.725294 0.668449 0.505312
0.868801 0.676342 0.513205
0.048276 0.877749 0.513697
0.048276 0.877749 0.513697
0.083326 0.877749 0.513697
0.197599 0.877749 0.513697
0.362576 0.877749 0.513697
0.553996 0.877749 0.513697
0.733679 0.877749 0.513697
0.869293 0.877749 0.513697
0.053121 0.965839 0.518542
0.053121 0.965839 0.518542
0.088171 0.965839 0.518542
0.202444 0.965839 0.518542
0.367421 0.965839 0.518542
0.558841 0.965839 0.518542
0.738524 0.965839 0.518542
0.874138 0.965839 0.518542
0.055000 1.000000 0.520421
0.055000 1.000000 0.520421
0.090050 1.000000 0.520421
0.204323 1.000000 0.520421
0.369300 1.000000 0.520421
0.560720 1.000000 0.520421
0.740403 1.000000 0.520421
0.876017 1.000000 0.520421
0.036162 0.036162 0.657484
0.036162 0.036162 0.657484
0.071212 0.036162 0.657484
0.185484 0.036162 0.657484
0.350462 0.036162 0.657484
0.541881 0.036162 0.657484
0.725294 0.039891 0.661214
0.868801 0.047784 0.669107
0.036162 0.076809 0.657484
0.036162 0.076809 0.657484
0.071212 0.076809 0.657484
0.185484 0.076809 0.657484
0.350462 0.076809 0.657484
0.541881 0.076809 0.657484
0.725294 0.080538 0.661214
0.868801 0.088431 0.669107
0.036162 0.199065 0.657484
0.036162 0.199065 0.657484
0.071212 0.199065 0.657484
0.185484 0.199065 0.657484
0.350462 0.199065 0.657484
0.541881 0.199065 0.657484
0.725294 0.202794 0.661214
0.868801 0.210687 0.669107
0.036162 0.412003 0.657484
0.036162 0.412003 0.657484
0.071212 0.412003 0.657484
0.185484 0.412003 0.657484
0.350462 0.412003 0.657484
0.541881 0.412003 0.657484
0.725294 0.415732 0.661214
0.868801 0.423625 0.669107
0.036583 0.665140 0.657905
0.036583 0.665140 0.657905
0.071633 0.665140 0.657905
0.185906 0.665140 0.657905
0.350883 0.665140 0.657905
0.542302 0.665140 0.657905
0.725294 0.668449 0.661214
0.868801 0.676342 0.669107
0.048276 0.877749 0.669599
0.048276 0.877749 0.669599
0.083326 0.877749 0.669599
0.197599 0.877749 0.669599
0.362576 0.877749 0.669599
0.553996 0.877749 0.669599
0.733679 0.877749 0.669599
0.869293 0.877749 0.669599
0.053121 0.965839 0.674444
0.053121 0.965839 0.674444
0.088171 0.965839 0.674444
0.202444 0.965839 0.674444
0.367421 0.965839 0.674444
0.558841 0.965839 0.674444
0.738524 0.965839 0.674444
0.874138 0.965839 0.674444
0.055000 1.000000 0.676323
0.055000 1.000000 0.676323
0.090050 1.000000 0.676323
0.204323 1.000000 0.676323
0.369300 1.000000 0.676323
0.560720 1.000000 0.676323
0.740403 1.000000 0.676323
0.876017 1.000000 0.676323
0.044121 0.044121 0.802192
0.044121 0.044121 0.802192
0.079171 0.044121 0.802192
0.193443 0.044121 0.802192
0.358421 0.044121 0.802192
0.549840 0.044121 0.802192
0.729524 0.044121 0.802192
0.868801 0.047784 0.805855
0.044121 0.084768 0.802192
0.044121 0.084768 0.802192
0.079171 0.084768 0.802192
0.193443 0.084768 0.802192
0.358421 0.084768 0.802192
0.549840 0.084768 0.802192
0.729524 0.084768 0.802192
0.868801 0.088431 0.805855
0.044121 0.207024 0.802192
0.044121 0.207024 0.802192
0.079171 0.207024 0.802192
0.193443 0.207024 0.802192
0.358421 0.207024 0.802192
0.549840 0.207024 0.802192
0.729524 0.207024 0.802192
0.868801 0.210687 0.805855
0.044121 0.419961 0.802192
0.044121 0.419961 0.802192
0.079171 0.419961 0.802192
0.193443 0.419961 0.802192
0.358421 0.419961 0.802192
0.549840 0.419961 0.802192
0.729524 0.419961 0.802192
0.868801 0.423625 0.805855
0.044121 0.672678 0.802192
0.044121 0.672678 0.802192
0.079171 0.672678 0.802192
0.193443 0.672678 0.802192
0.358421 0.672678 0.802192
0.549840 0.672678 0.802192
0.729524 0.672678 0.802192
0.868801 0.676342 0.805855
0.048276 0.877749 0.806347
0.048276 0.877749 0.806347
0.083326 0.877749 0.806347
0.197599 0.877749 0.806347
0.362576 0.877749 0.806347
0.553996 0.877749 0.806347
0.733679 0.877749 0.806347
0.869293 0.877749 0.806347
0.053121 0.965839 0.811192
0.053121 0.965839 0.811192
0.088171 0.965839 0.811192
0.202444 0.965839 0.811192
0.367421 0.965839 0.811192
0.558841 0.965839 0.811192
0.738524 0.965839 0.811192
0.874138 0.965839 0.811192
0.055000 1.000000 0.813071
0.055000 1.000000 0.813071
0.090050 1.000000 0.813071
0.204323 1.000000 0.813071
0.369300 1.000000 0.813071
0.560720 1.000000 0.813071
0.740403 1.000000 0.813071
0.876017 1.000000 0.813071
0.049632 0.049632 0.902395
0.049632 0.049632 0.902395
0.084682 0.049632 0.902395
0.198955 0.049632 0.902395
0.363932 0.049632 0.902395
0.555351 0.049632 0.902395
0.735035 0.049632 0.902395
0.870648 0.049632 0.902395
0.049632 0.090279 0.902395
0.049632 0.090279 0.902395
0.084682 0.090279 0.902395
0.198955 0.090279 0.902395
0.363932 0.090279 0.902395
0.555351 0.090279 0.902395
0.735035 0.090279 0.902395
0.870648 0.090279 0.902395
0.049632 0.212535 0.902395
0.049632 0.212535 0.902395
0.084682 0.212535 0.902395
0.198955 0.212535 0.902395
0.363932 0.212535 0.902395
0.555351 0.212535 0.902395
0.735035 0.212535 0.902395
0.870648 0.212535 0.902395
0.049632 0.425473 0.902395
0.049632 0.425473 0.902395
0.084682 0.425473 0.902395
0.198955 0.425473 0.902395
0.363932 0.425473 0.902395
0.555351 0.425473 0.902395
0.735035 0.425473 0.902395
0.870648 0.425473 0.902395
0.049632 0.678189 0.902395
0.049632 0.678189 0.902395
0.084682 0.678189 0.902395
0.198955 0.678189 0.902395
0.363932 0.678189 0.902395
0.555351 0.678189 0.902395
0.735035 0.678189 0.902395
0.870648 0.678189 0.902395
0.049632 0.879104 0.902395
0.049632 0.879104 0.902395
0.084682 0.879104 0.902395
0.198955 0.879104 0.902395
0.363932 0.879104 0.902395
0.555351 0.879104 0.902395
0.735035 0.879104 0.902395
0.870648 0.879104 0.902395
0.053121 0.965839 0.905885
0.053121 0.965839 0.905885
0.088171 0.965839 0.905885
0.202444 0.965839 0.905885
0.367421 0.965839 0.905885
0.558841 0.965839 0.905885
0.738524 0.965839 0.905885
0.874138 0.965839 0.905885
0.055000 1.000000 0.907763
0.055000 1.000000 0.907763
0.090050 1.000000 0.907763
0.204323 1.000000 0.907763
0.369300 1.000000 0.907763
0.560720 1.000000 0.907763
0.740403 1.000000 0.907763
0.876017 1.000000 0.907763
0.052421 0.052421 0.953101
0.052421 0.052421 0.953101
0.087471 0.052421 0.953101
0.201743 0.052421 0.953101
0.366721 0.052421 0.953101
0.558140 0.052421 0.953101
0.737824 0.052421 0.953101
0.873437 0.052421 0.953101
0.052421 0.093068 0.953101
0.052421 0.093068 0.953101
0.087471 0.093068 0.953101
0.201743 0.093068 0.953101
0.366721 0.093068 0.953101
0.558140 0.093068 0.953101
0.737824 0.093068 0.953101
0.873437 0.093068 0.953101
0.052421 0.215324 0.953101
0.052421 0.215324 0.953101
0.087471 0.215324 0.953101
0.201743 0.215324 0.953101
0.366721 0.215324 0.953101
0.558140 0.215324 0.953101
0.737824 0.215324 0.953101
0.873437 0.215324 0.953101
0.052421 0.428261 0.953101
0.052421 0.428261 0.953101
0.087471 0.428261 0.953101
0.201743 0.428261 0.953101
0.366721 0.428261 0.953101
0.558140 0.428261 0.953101
0.737824 0.428261 0.953101
0.873437 0.428261 0.953101
0.052421 0.680978 0.953101
0.052421 0.680978 0.953101
0.087471 0.680978 0.953101
0.201743 0.680978 0.953101
0.366721 0.680978 0.953101
0.558140 0.680978 0.953101
0.737824 0.680978 0.953101
0.873437 0.680978 0.953101
0.052421 0.881893 0.953101
0.052421 0.881893 0.953101
0.087471 0.881893 0.953101
0.201743 0.881893 0.953101
0.366721 0.881893 0.953101
0.558140 0.881893 0.953101
0.737824 0.881893 0.953101
0.873437 0.881893 0.953101
0.053121 0.965839 0.953801
0.053121 0.965839 0.953801
0.088171 0.965839 0.953801
0.202444 0.965839 0.953801
0.367421 0.965839 0.953801
0.558841 0.965839 0.953801
0.738524 0.965839 0.953801
0.874138 0.965839 0.953801
0.055000 1.000000 0.955680
0.055000 1.000000 0.955680
0.090050 1.000000 0.955680
0.204323 1.000000 0.955680
0.369300 1.000000 0.955680
0.560720 1.000000 0.955680
0.740403 1.000000 0.955680
0.876017 1.000000 0.955680
0.054581 0.054581 0.992378
0.054581 0.054581 0.992378
0.089631 0.054581 0.992378
0.203904 0.054581 0.992378
0.368881 0.054581 0.992378
0.560301 0.054581 0.992378
0.739984 0.054581 0.992378
0.875597 0.054581 0.992378
0.054581 0.095228 0.992378
0.054581 0.095228 0.992378
0.089631 0.095228 0.992378
0.203904 0.095228 0.992378
0.368881 0.095228 0.992378
0.560301 0.095228 0.992378
0.739984 0.095228 0.992378
0.875597 0.095228 0.992378
0.054581 0.217484 0.992378
0.054581 0.217484 0.992378
0.089631 0.217484 0.992378
0.203904 0.217484 0.992378
0.368881 0.217484 0.992378
0.560301 0.217484 0.992378
0.739984 0.217484 0.992378
0.875597 0.217484 0.992378
0.054581 0.430422 0.992378
0.054581 0.430422 0.992378
0.089631 0.430422 0.992378
0.203904 0.430422 0.992378
0.368881 0.430422 0.992378
0.560301 0.430422 0.992378
0.739984 0.430422 0.992378
0.875597 0.430422 0.992378
0.054581 0.683138 0.992378
0.054581 0.683138 0.992378
0.089631 0.683138 0.992378
0.203904 0.683138 0.992378
0.368881 0.683138 0.992378
0.560301 0.683138 0.992378
0.739984 0.683138 0.992378
0.875597 0.683138 0.992378
0.054581 0.884053 0.992378
0.054581 0.884053 0.992378
0.089631 0.884053 0.992378
0.203904 0.884053 0.992378
0.368881 0.884053 0.992378
0.560301 0.884053 0.992378
0.739984 0.884053 0.992378
0.875597 0.884053 0.992378
0.054581 0.967299 0.992378
0.054581 0.967299 0.992378
0.089631 0.967299 0.992378
0.203904 0.967299 0.992378
0.368881 0.967299 0.992378
0.560301 0.967299 0.992378
0.739984 0.967299 0.992378
0.875597 0.967299 0.992378
0.055000 1.000000 0.992797
0.055000 1.000000 0.992797
0.090050 1.000000 0.992797
0.204323 1.000000 0.992797
0.369300 1.000000 0.992797
0.560720 1.000000 0.992797
0.740403 1.000000 0.992797
0.876017 1.000000 0.992797
